X:420
T: Xiuhao huaihe zhuangjia hao
N: C2038
O: China,Anhui Auxian
S: III, 523]
R: Xiaodiao]
M: 2/4
L: 1/16
K: Bb
f4f2d2 | d2c2-c4 |
d4c2b2 | c2g2-g4 |
c2c2f2f2- | f2g2b2gb | c2g6 |
z8 | z8 |
c2c2f2f2- | f2g2b2gb | c8 |
f8 | b4c2b2 | f8

@@@ Tune index: 6975
